X: 1
T: To Life!
C: Jerry Bock
N: From the musical "Fiddler on the Roof"
M: C|
L: 1/4
K: Dm
A \
|: "E7"fz ze | "A7"dz z^c | "Dm"dA z2 | z2 zA \
|  "D"d _e2 d | c B2 A | "Gm"Bz z2 | "G7"zG _GF |
|  "C7"E c2 B | "F"A^G A2 | "Bb"D B2 A | "Eb"G^F G2 \
|  "Cm"z_e2 e | "A7"=e ^d2 e :| "D"^f4- | f2 z2 |]
|: "Gm"d2 d2 | ^cd =cB | "Dm"A2 A2 | ^GA =GF \
|  "E7"E2 E2 |1 "A7"EF G^G | "Dm"A4- | "D7"A2 z2 :|2 "E7"FE ^DE | "A7"A4- | A2 zA |
[| "E7"fz ze | "A7"dz z^c | "Dm"dA z2 | z2 zA \
|  "D"d _e2 d | c B2 A | "Gm"Bz z2 | "G7"zG _GF |
|  "C7"E c2 B | "F"A^G A2 | "Bb"D B2 A | "Eb"G^F G2 \
|  "Cm"z_e2 d | "A7"^c f3- | f4- | f3 e \
|  "Dm"d2 z2 | z3 |]
